X: 1
P: The Reconciliation Reel
R: reel
C: O'Neill's
C: arr. T. Traub 2-27-2004
M: C|
K: A
|:E2 |"A"A2 (3cBA eAfA|"A"eAfA "E7"ecBc|"A"A2 (3cBA eAfA|"D"ecBc "E7"AFEF|"A"A2 (3cBA eAfA|
"A"eAfA "A7"ecBc|"D"ABAF "Bm"EAcf |"E7"ecBc "A"A3 :||: cB|"A"ABce a3 f|"Bm"efed "E"cdcB|
"A"ABce  "F#m"a3 g | "Bm"fbba "E7"gefg | "A"agae "D"faec | "Bm"dBcA "E7"BAFG | "A"ABAF "D"EFAf |"E7"ecBc "A"A3 :|
